dist/svg/underline.svg

<svg width="16" height="16" viewBox="0 0 16 16" fill="rgb(34, 34, 34)" xmlns="http://www.w3.org/2000/svg"><title>underline</title><path d="M3 2.00002H7.261V2.71502L6.34 2.78602L6.13 2.99302V7.99902C6.122 8.08702 6.118 8.18902 6.118 8.29202C6.118 9.00702 6.334 9.67202 6.703 10.225L6.695 10.212C7.12 10.608 7.693 10.851 8.322 10.851C8.402 10.851 8.482 10.847 8.56 10.839L8.55 10.84C8.607 10.846 8.673 10.849 8.74 10.849C9.346 10.849 9.891 10.589 10.27 10.174L10.271 10.172C10.613 9.64302 10.817 8.99602 10.817 8.30102C10.817 8.19402 10.812 8.08902 10.803 7.98502L10.804 7.99802V3.04902L10.58 2.80002L9.631 2.71402V1.99902H13V2.71402L12.094 2.80002L11.891 3.04902V7.99802C11.901 8.11002 11.907 8.24002 11.907 8.37102C11.907 9.40002 11.552 10.345 10.957 11.092L10.964 11.083C10.257 11.663 9.343 12.015 8.347 12.015C8.215 12.015 8.084 12.009 7.955 11.997L7.971 11.998C7.94 11.999 7.904 11.999 7.868 11.999C7.225 11.999 6.609 11.885 6.04 11.675L6.077 11.687C5.563 11.503 5.131 11.196 4.801 10.802L4.797 10.797C4.567 10.502 4.394 10.151 4.298 9.77002L4.294 9.75102C4.197 9.28702 4.142 8.75302 4.142 8.20702C4.142 8.13402 4.143 8.06102 4.145 7.98802V7.99902V2.99302L3.935 2.78602L3 2.71502V2.00002ZM2 14H14V13H2V14Z" fill="rgb(34, 34, 34)" fill-opacity="1.00"/></svg>

<!-- Generated by Trend Micro Style Portal -->
<svg version="1.1" xmlns="http://www.w3.org/2000/svg" width="16" height="16" viewBox="0 0 16 16">
  <title>underline</title>
  <path fill="rgb(34,34,34)" d="M3 2h4.261v0.715l-0.921 0.071-0.21 0.207v5.006c-0.008 0.088-0.012 0.19-0.012 0.293 0 0.715 0.216 1.38 0.585 1.933l-0.008-0.013c0.425 0.396 0.998 0.639 1.627 0.639 0.080 0 0.16-0.004 0.238-0.012l-0.010 0.001c0.057 0.006 0.123 0.009 0.19 0.009 0.606 0 1.151-0.26 1.53-0.675l0.001-0.002c0.342-0.529 0.546-1.176 0.546-1.871 0-0.107-0.005-0.212-0.014-0.316l0.001 0.013v-4.949l-0.224-0.249-0.949-0.086v-0.715h3.369v0.715l-0.906 0.086-0.203 0.249v4.949c0.010 0.112 0.016 0.242 0.016 0.373 0 1.029-0.355 1.974-0.95 2.721l0.007-0.009c-0.707 0.58-1.621 0.932-2.617 0.932-0.132 0-0.263-0.006-0.392-0.018l0.016 0.001c-0.031 0.001-0.067 0.001-0.103 0.001-0.643 0-1.259-0.114-1.828-0.324l0.037 0.012c-0.514-0.184-0.946-0.491-1.276-0.885l-0.004-0.005c-0.23-0.295-0.403-0.646-0.499-1.027l-0.004-0.019c-0.097-0.464-0.152-0.998-0.152-1.544 0-0.073 0.001-0.146 0.003-0.219l-0 0.011v-5.006l-0.21-0.207-0.935-0.071zM2 14h12v-1h-12z"></path>
</svg>
